X:193
T:The Rattling Bog
Z:Jack Campin, http://www.campin.me.uk/
F:Jack Campin's Nine-Note Tunebook
% last edit 03-02-2013
M:C|
L:1/8
Q:1/2=100
K:G
GA|B4   B3 A|G2E2 E3 E|D2G2 GFGA|B2A2 A2
GA|B4   B3 A|G2E2 E3 E|D2d2 d2B2|A2G2 G2:|
GA|B2G2 A2GA|B2G2 A2GA|B2d2 d2B2|A2G2 A2
GA|B2G2 A2GA|B2G2 A2GA|B2d2 d2B2|A2G2 G2:|

